X: 146
T: Fen ju zaoliu ma The bay horse with white breast and whitish muzzle
L: 1/16
M: 2/4
K: C
E4G2 A2 [I:setbarnb 1]| 
d8- | 
d4e d e g | 
c4A c A2 | 
G2 A2 G A G2- | 
G8 | 
(3E D EG6- | 
G8 |]

@@@ Tune index: 8814
